src/helpers/heroicons/outline/arrow-up-on-square-stack.svg

<svg width="24" height="24" viewBox="0 0 24 24" fill="none" xmlns="http://www.w3.org/2000/svg">
<path d="M7.5 7.5H6.75C5.50736 7.5 4.5 8.50736 4.5 9.75V17.25C4.5 18.4926 5.50736 19.5 6.75 19.5H14.25C15.4926 19.5 16.5 18.4926 16.5 17.25V9.75C16.5 8.50736 15.4926 7.5 14.25 7.5H13.5M13.5 4.5L10.5 1.5M10.5 1.5L7.5 4.5M10.5 1.5L10.5 12.75M16.5 10.5H17.25C18.4926 10.5 19.5 11.5074 19.5 12.75V20.25C19.5 21.4926 18.4926 22.5 17.25 22.5H9.75C8.50736 22.5 7.5 21.4926 7.5 20.25V19.5"  stroke-width="1.5" stroke-linecap="round" stroke-linejoin="round"/>
</svg>

<svg xmlns="http://www.w3.org/2000/svg" fill="none" viewBox="0 0 24 24" stroke-width="1.5" stroke="currentColor" aria-hidden="true" data-slot="icon">
  <path stroke-linecap="round" stroke-linejoin="round" d="M7.5 7.5h-.75A2.25 2.25 0 0 0 4.5 9.75v7.5a2.25 2.25 0 0 0 2.25 2.25h7.5a2.25 2.25 0 0 0 2.25-2.25v-7.5a2.25 2.25 0 0 0-2.25-2.25h-.75m0-3-3-3m0 0-3 3m3-3v11.25m6-2.25h.75a2.25 2.25 0 0 1 2.25 2.25v7.5a2.25 2.25 0 0 1-2.25 2.25h-7.5a2.25 2.25 0 0 1-2.25-2.25v-.75"/>
</svg>
